symbolic/32x32/apps/gnome-mastermind.svg

<svg xmlns="http://www.w3.org/2000/svg" width="32" height="32" version="1">
 <path style="opacity:0.2" d="m 27.433594,5.0019531 c -0.686703,0.027135 -1.382419,0.2743193 -2.044922,0.6640625 a 0.31893658,0.31893658 0 0 0 -0.117188,0.4296875 l 1.117188,2.0097657 -4.132813,2.5058592 c -0.240346,0.145695 -0.32683,0.474425 -0.191406,0.720703 l 0.390625,0.710938 c 0.135425,0.246279 0.451061,0.33124 0.691406,0.185547 l 4.138672,-2.509766 1.175782,2.117188 a 0.31893658,0.31893658 0 0 0 0.404296,0.138671 C 29.889817,11.54089 30.585719,10.778124 30.867188,9.8691406 31.148654,8.9601571 31.015332,7.9197514 30.460938,6.9335938 29.842551,5.833604 29.01692,5.2200037 28.115234,5.0507812 27.889813,5.0084756 27.662495,4.992908 27.433594,5.0019531 Z M 5.5,6 C 3.570772,6 2,7.5707718 2,9.5 2,11.429229 3.570772,13 5.5,13 7.4292281,13 9,11.429229 9,9.5 9,7.5707718 7.4292281,6 5.5,6 Z m 7,2 C 11.681575,8 11,8.6732897 11,9.5 11,10.32671 11.681575,11 12.5,11 13.318424,11 14,10.32671 14,9.5 14,8.6732897 13.318424,8 12.5,8 Z m 7,0 C 18.681577,8 18,8.6732899 18,9.5 18,10.326711 18.681577,11 19.5,11 20.318424,11 21,10.326711 21,9.5 21,8.6732899 20.318424,8 19.5,8 Z m -14,6 C 3.5707724,14 2,15.570773 2,17.5 2,19.429228 3.5707724,21 5.5,21 7.4292277,21 9,19.429228 9,17.5 9,15.570773 7.4292277,14 5.5,14 Z M 9,17.5 C 9,19.429228 10.570773,21 12.5,21 14.429229,21 16,19.429228 16,17.5 16,15.570773 14.429229,14 12.5,14 10.570773,14 9,15.570773 9,17.5 Z m 7,0 C 16,19.429228 17.570773,21 19.5,21 21.429228,21 23,19.429228 23,17.5 23,15.570773 21.429228,14 19.5,14 17.570773,14 16,15.570773 16,17.5 Z m 7,0 C 23,19.429227 24.570773,21 26.5,21 28.429228,21 30,19.429227 30,17.5 30,15.570772 28.429228,14 26.5,14 24.570773,14 23,15.570772 23,17.5 Z M 5.5,22 C 3.5707722,22 2,23.570771 2,25.5 2,27.429228 3.5707722,29 5.5,29 7.429228,29 9,27.429228 9,25.5 9,23.570771 7.429228,22 5.5,22 Z M 9,25.5 C 9,27.429228 10.570772,29 12.5,29 14.429229,29 16,27.429228 16,25.5 16,23.570771 14.429229,22 12.5,22 10.570772,22 9,23.570771 9,25.5 Z m 7,0 C 16,27.429228 17.570772,29 19.5,29 21.429228,29 23,27.429228 23,25.5 23,23.570771 21.429228,22 19.5,22 17.570772,22 16,23.570771 16,25.5 Z m 7,0 C 23,27.429228 24.570772,29 26.5,29 28.429228,29 30,27.429228 30,25.5 30,23.570772 28.429228,22 26.5,22 24.570772,22 23,23.570772 23,25.5 Z"/>
 <path style="fill:#ab47bc" d="M 28.033099,6.7132355 C 27.897673,6.466958 27.583411,6.3819617 27.343063,6.5276562 l -5.086419,3.0833129 c -0.240346,0.145695 -0.328374,0.4745499 -0.19295,0.7208279 L 22.45505,11.0435 c 0.135425,0.246279 0.450694,0.330668 0.691039,0.184975 L 28.23251,8.1451635 c 0.240346,-0.1456952 0.327371,-0.4739462 0.191945,-0.720225 z"/>
 <path style="fill:#ab47bc" d="M 28.116109,4.0510164 C 27.214424,3.8817939 26.272563,4.1454994 25.389225,4.6651571 A 0.31893658,0.31893658 0 0 0 25.272127,5.094931 l 3.189047,5.740285 a 0.31893658,0.31893658 0 0 0 0.403614,0.139521 C 29.889371,10.541018 30.58644,9.7784502 30.867908,8.8694672 31.149375,7.9604837 31.016197,6.9194591 30.461803,5.9333015 29.843416,4.8333118 29.017795,4.2202388 28.116109,4.0510164 Z"/>
 <path style="fill:#6d6f69" d="M 12.500001,7 C 11.681576,7 11,7.6732897 11,8.5 11,9.3267103 11.681576,10 12.500001,10 13.318425,10 14,9.3267103 14,8.5 14,7.6732897 13.318425,7 12.500001,7 Z"/>
 <path style="fill:#3f51b5" d="M 5.4999994,13 C 3.5707718,13 2,14.570772 2,16.499999 c 0,1.929228 1.5707718,3.5 3.4999994,3.5 1.9292277,0 3.4999995,-1.570772 3.4999995,-3.5 C 8.9999989,14.570772 7.4292271,13 5.4999994,13 Z"/>
 <path style="fill:#ab47bc" d="m 12.499998,13 c -1.929227,0 -3.4999991,1.570772 -3.4999991,3.499999 0,1.929228 1.5707721,3.5 3.4999991,3.5 1.929229,0 3.5,-1.570772 3.5,-3.5 0,-1.929227 -1.570771,-3.499999 -3.5,-3.499999 z"/>
 <path style="fill:#795548" d="M 19.5,21 C 17.570772,21 16,22.570771 16,24.5 16,26.429228 17.570772,28 19.5,28 21.429228,28 23,26.429228 23,24.5 23,22.570771 21.429228,21 19.5,21 Z"/>
 <path style="fill:#ffc107" d="m 26.499996,13.000001 c -1.929227,0 -3.499999,1.570772 -3.499999,3.5 0,1.929227 1.570772,3.499999 3.499999,3.499999 1.929228,0 3.5,-1.570772 3.5,-3.499999 0,-1.929228 -1.570772,-3.5 -3.5,-3.5 z"/>
 <path style="fill:#795548" d="M 5.4999999,21 C 3.5707721,21 2,22.570771 2,24.5 2,26.429228 3.5707721,28 5.4999999,28 c 1.929228,0 3.5,-1.570772 3.5,-3.5 0,-1.929229 -1.570772,-3.5 -3.5,-3.5 z"/>
 <path style="fill:#f44336" d="m 19.499997,13 c -1.929227,0 -3.499999,1.570772 -3.499999,3.499999 0,1.929228 1.570772,3.5 3.499999,3.5 1.929228,0 3.5,-1.570772 3.5,-3.5 0,-1.929227 -1.570772,-3.499999 -3.5,-3.499999 z"/>
 <path style="fill:#4caf50" d="m 26.5,21.000001 c -1.929228,0 -3.5,1.570771 -3.5,3.499999 0,1.929228 1.570772,3.5 3.5,3.5 1.929228,0 3.5,-1.570772 3.5,-3.5 0,-1.929228 -1.570772,-3.499999 -3.5,-3.499999 z"/>
 <path style="fill:#3f51b5" d="m 12.5,21 c -1.929228,0 -3.5000001,1.570771 -3.5000001,3.5 0,1.929228 1.5707721,3.5 3.5000001,3.5 C 14.429229,28 16,26.429228 16,24.5 16,22.570771 14.429229,21 12.5,21 Z"/>
 <path style="fill:#4caf50" d="M 5.5000002,5 C 3.5707722,5 2,6.5707721 2,8.5000003 2,10.429229 3.5707722,12 5.5000002,12 7.4292283,12 9.0000004,10.429229 9.0000004,8.5000003 9.0000004,6.5707721 7.4292283,5 5.5000002,5 Z"/>
 <path style="fill:#6d6f69" d="M 19.499999,7 C 18.681576,7 18,7.6732895 18,8.4999996 18,9.3267105 18.681576,10 19.499999,10 20.318423,10 21,9.3267105 21,8.4999996 21,7.6732895 20.318423,7 19.499999,7 Z"/>
 <path style="opacity:0.1;fill:#ffffff" d="M 27.433594 4.0019531 C 26.746891 4.0290885 26.051175 4.2762724 25.388672 4.6660156 A 0.31893658 0.31893658 0 0 0 25.271484 5.0957031 L 25.542969 5.5839844 C 26.158919 5.2449707 26.799801 5.0269974 27.433594 5.0019531 C 27.662495 4.992908 27.889813 5.0084756 28.115234 5.0507812 C 29.01692 5.2200037 29.842551 5.833604 30.460938 6.9335938 C 30.726551 7.4060676 30.887941 7.8902283 30.960938 8.3671875 C 31.070429 7.5866983 30.916426 6.7438176 30.460938 5.9335938 C 29.842551 4.833604 29.01692 4.2200037 28.115234 4.0507812 C 27.889813 4.0084756 27.662495 3.992908 27.433594 4.0019531 z M 5.5 5 C 3.570772 5 2 6.5707718 2 8.5 C 2 8.6710431 2.0269324 8.835437 2.0507812 9 C 2.2959285 7.3084246 3.741815 6 5.5 6 C 7.2581851 6 8.7040715 7.3084246 8.9492188 9 C 8.9730676 8.835437 9 8.6710431 9 8.5 C 9 6.5707718 7.4292281 5 5.5 5 z M 12.5 7 C 11.681575 7 11 7.6732897 11 8.5 C 11 8.6759088 11.03728 8.8429921 11.09375 9 C 11.30267 8.4191254 11.855721 8 12.5 8 C 13.144278 8 13.69733 8.4191254 13.90625 9 C 13.96272 8.8429921 14 8.6759088 14 8.5 C 14 7.6732897 13.318424 7 12.5 7 z M 19.5 7 C 18.681577 7 18 7.6732899 18 8.5 C 18 8.675909 18.03728 8.8429921 18.09375 9 C 18.302671 8.4191255 18.855722 8 19.5 8 C 20.144278 8 20.69733 8.4191255 20.90625 9 C 20.96272 8.8429921 21 8.675909 21 8.5 C 21 7.6732899 20.318424 7 19.5 7 z M 25.972656 7.3574219 L 22.255859 9.6113281 C 22.015513 9.7570231 21.929029 10.085753 22.064453 10.332031 L 22.230469 10.634766 C 22.240064 10.62798 22.24571 10.617481 22.255859 10.611328 L 26.388672 8.1054688 L 25.972656 7.3574219 z M 5.5 13 C 3.5707724 13 2 14.570773 2 16.5 C 2 16.671043 2.0269324 16.835437 2.0507812 17 C 2.2959286 15.308425 3.7418153 14 5.5 14 C 7.2581848 14 8.7040714 15.308425 8.9492188 17 C 8.9730676 16.835437 9 16.671043 9 16.5 C 9 14.570773 7.4292277 13 5.5 13 z M 9 16.5 C 9 16.671043 9.0269324 16.835437 9.0507812 17 C 9.2959287 15.308425 10.741816 14 12.5 14 C 14.258186 14 15.704072 15.308425 15.949219 17 C 15.973068 16.835437 16 16.671043 16 16.5 C 16 14.570773 14.429229 13 12.5 13 C 10.570773 13 9 14.570773 9 16.5 z M 16 16.5 C 16 16.671043 16.026932 16.835437 16.050781 17 C 16.295929 15.308425 17.741816 14 19.5 14 C 21.258185 14 22.704071 15.308425 22.949219 17 C 22.973068 16.835437 23 16.671043 23 16.5 C 23 14.570773 21.429228 13 19.5 13 C 17.570773 13 16 14.570773 16 16.5 z M 23 16.5 C 23 16.671043 23.026932 16.835437 23.050781 17 C 23.295929 15.308425 24.741816 14 26.5 14 C 28.258185 14 29.704071 15.308425 29.949219 17 C 29.973068 16.835437 30 16.671043 30 16.5 C 30 14.570772 28.429228 13 26.5 13 C 24.570773 13 23 14.570772 23 16.5 z M 5.5 21 C 3.5707722 21 2 22.570771 2 24.5 C 2 24.671043 2.0269324 24.835437 2.0507812 25 C 2.2959286 23.308424 3.7418151 22 5.5 22 C 7.258185 22 8.7040715 23.308424 8.9492188 25 C 8.9730676 24.835437 9 24.671043 9 24.5 C 9 22.570771 7.429228 21 5.5 21 z M 9 24.5 C 9 24.671043 9.0269324 24.835437 9.0507812 25 C 9.2959285 23.308424 10.741815 22 12.5 22 C 14.258186 22 15.704072 23.308424 15.949219 25 C 15.973068 24.835437 16 24.671043 16 24.5 C 16 22.570771 14.429229 21 12.5 21 C 10.570772 21 9 22.570771 9 24.5 z M 16 24.5 C 16 24.671043 16.026932 24.835437 16.050781 25 C 16.295929 23.308424 17.741815 22 19.5 22 C 21.258185 22 22.704071 23.308424 22.949219 25 C 22.973068 24.835437 23 24.671043 23 24.5 C 23 22.570771 21.429228 21 19.5 21 C 17.570772 21 16 22.570771 16 24.5 z M 23 24.5 C 23 24.671043 23.026932 24.835437 23.050781 25 C 23.295929 23.308425 24.741815 22 26.5 22 C 28.258185 22 29.704071 23.308425 29.949219 25 C 29.973068 24.835437 30 24.671043 30 24.5 C 30 22.570772 28.429228 21 26.5 21 C 24.570772 21 23 22.570772 23 24.5 z"/>
</svg>

<svg xmlns="http://www.w3.org/2000/svg" width="32" height="32" version="1"><path style="opacity:.2" d="M27.434 5.002c-.687.027-1.383.274-2.045.664a.319.319 0 0 0-.118.43l1.118 2.01-4.133 2.505a.55.55 0 0 0-.192.721l.391.711a.497.497 0 0 0 .691.186l4.14-2.51 1.175 2.117a.319.319 0 0 0 .404.139c1.025-.434 1.72-1.197 2.002-2.106.282-.909.148-1.95-.406-2.935-.618-1.1-1.444-1.714-2.346-1.883a3.034 3.034 0 0 0-.681-.049zM5.5 6C3.57 6 2 7.57 2 9.5S3.57 13 5.5 13 9 11.43 9 9.5 7.43 6 5.5 6zm7 2c-.818 0-1.5.673-1.5 1.5s.682 1.5 1.5 1.5 1.5-.673 1.5-1.5S13.318 8 12.5 8zm7 0c-.818 0-1.5.673-1.5 1.5s.682 1.5 1.5 1.5 1.5-.673 1.5-1.5S20.318 8 19.5 8zm-14 6C3.57 14 2 15.57 2 17.5S3.57 21 5.5 21 9 19.43 9 17.5 7.43 14 5.5 14zM9 17.5c0 1.93 1.57 3.5 3.5 3.5s3.5-1.57 3.5-3.5-1.57-3.5-3.5-3.5S9 15.57 9 17.5zm7 0c0 1.93 1.57 3.5 3.5 3.5s3.5-1.57 3.5-3.5-1.57-3.5-3.5-3.5-3.5 1.57-3.5 3.5zm7 0c0 1.93 1.57 3.5 3.5 3.5s3.5-1.57 3.5-3.5-1.57-3.5-3.5-3.5-3.5 1.57-3.5 3.5zM5.5 22C3.57 22 2 23.57 2 25.5S3.57 29 5.5 29 9 27.43 9 25.5 7.43 22 5.5 22zM9 25.5c0 1.93 1.57 3.5 3.5 3.5s3.5-1.57 3.5-3.5-1.57-3.5-3.5-3.5S9 23.57 9 25.5zm7 0c0 1.93 1.57 3.5 3.5 3.5s3.5-1.57 3.5-3.5-1.57-3.5-3.5-3.5-3.5 1.57-3.5 3.5zm7 0c0 1.93 1.57 3.5 3.5 3.5s3.5-1.57 3.5-3.5-1.57-3.5-3.5-3.5-3.5 1.57-3.5 3.5z"/><path style="fill:#ab47bc" d="M28.033 6.713a.496.496 0 0 0-.69-.185L22.257 9.61a.55.55 0 0 0-.193.72l.391.713c.135.246.45.33.691.184l5.087-3.083a.549.549 0 0 0 .191-.72z"/><path style="fill:#ab47bc" d="M28.116 4.051c-.902-.17-1.843.094-2.727.614a.319.319 0 0 0-.117.43l3.19 5.74a.319.319 0 0 0 .403.14c1.024-.434 1.721-1.197 2.003-2.106.281-.909.148-1.95-.406-2.936-.619-1.1-1.444-1.713-2.346-1.882z"/><path style="fill:#6d6f69" d="M12.5 7c-.818 0-1.5.673-1.5 1.5s.682 1.5 1.5 1.5S14 9.327 14 8.5 13.318 7 12.5 7z"/><path style="fill:#3f51b5" d="M5.5 13C3.57 13 2 14.57 2 16.5S3.57 20 5.5 20 9 18.43 9 16.5 7.43 13 5.5 13z"/><path style="fill:#ab47bc" d="M12.5 13C10.57 13 9 14.57 9 16.5s1.57 3.5 3.5 3.5 3.5-1.57 3.5-3.5-1.57-3.5-3.5-3.5z"/><path style="fill:#795548" d="M19.5 21c-1.93 0-3.5 1.57-3.5 3.5s1.57 3.5 3.5 3.5 3.5-1.57 3.5-3.5-1.57-3.5-3.5-3.5z"/><path style="fill:#ffc107" d="M26.5 13c-1.93 0-3.5 1.57-3.5 3.5s1.57 3.5 3.5 3.5 3.5-1.57 3.5-3.5-1.57-3.5-3.5-3.5z"/><path style="fill:#795548" d="M5.5 21C3.57 21 2 22.57 2 24.5S3.57 28 5.5 28 9 26.43 9 24.5 7.43 21 5.5 21z"/><path style="fill:#f44336" d="M19.5 13c-1.93 0-3.5 1.57-3.5 3.5s1.57 3.5 3.5 3.5 3.5-1.57 3.5-3.5-1.57-3.5-3.5-3.5z"/><path style="fill:#4caf50" d="M26.5 21c-1.93 0-3.5 1.57-3.5 3.5s1.57 3.5 3.5 3.5 3.5-1.57 3.5-3.5-1.57-3.5-3.5-3.5z"/><path style="fill:#3f51b5" d="M12.5 21C10.57 21 9 22.57 9 24.5s1.57 3.5 3.5 3.5 3.5-1.57 3.5-3.5-1.57-3.5-3.5-3.5z"/><path style="fill:#4caf50" d="M5.5 5C3.57 5 2 6.57 2 8.5S3.57 12 5.5 12 9 10.43 9 8.5 7.43 5 5.5 5z"/><path style="fill:#6d6f69" d="M19.5 7c-.818 0-1.5.673-1.5 1.5s.682 1.5 1.5 1.5S21 9.327 21 8.5 20.318 7 19.5 7z"/><path style="opacity:.1;fill:#fff" d="M27.434 4.002c-.687.027-1.383.274-2.045.664a.319.319 0 0 0-.118.43l.272.488c.616-.339 1.257-.557 1.89-.582.23-.01.457.006.682.049.902.169 1.728.783 2.346 1.883.266.472.427.956.5 1.433.11-.78-.045-1.623-.5-2.433-.618-1.1-1.444-1.714-2.346-1.883a3.034 3.034 0 0 0-.681-.049zM5.5 5C3.57 5 2 6.57 2 8.5c0 .171.027.335.05.5.246-1.692 1.692-3 3.45-3 1.758 0 3.204 1.308 3.45 3 .023-.165.05-.329.05-.5C9 6.57 7.43 5 5.5 5zm7 2c-.818 0-1.5.673-1.5 1.5 0 .176.037.343.094.5.209-.58.762-1 1.406-1 .644 0 1.197.42 1.406 1 .057-.157.094-.324.094-.5 0-.827-.682-1.5-1.5-1.5zm7 0c-.818 0-1.5.673-1.5 1.5 0 .176.037.343.094.5.209-.58.762-1 1.406-1 .644 0 1.197.42 1.406 1 .057-.157.094-.324.094-.5 0-.827-.682-1.5-1.5-1.5zm6.473.357-3.717 2.254a.55.55 0 0 0-.192.721l.166.303c.01-.007.016-.018.026-.024l4.133-2.506-.416-.748zM5.5 13C3.57 13 2 14.57 2 16.5c0 .171.027.335.05.5.246-1.692 1.692-3 3.45-3 1.758 0 3.204 1.308 3.45 3 .023-.165.05-.329.05-.5C9 14.57 7.43 13 5.5 13zM9 16.5c0 .171.027.335.05.5.246-1.692 1.692-3 3.45-3 1.758 0 3.204 1.308 3.45 3 .023-.165.05-.329.05-.5 0-1.93-1.57-3.5-3.5-3.5S9 14.57 9 16.5zm7 0c0 .171.027.335.05.5.246-1.692 1.692-3 3.45-3 1.758 0 3.204 1.308 3.45 3 .023-.165.05-.329.05-.5 0-1.93-1.57-3.5-3.5-3.5S16 14.57 16 16.5zm7 0c0 .171.027.335.05.5.246-1.692 1.692-3 3.45-3 1.758 0 3.204 1.308 3.45 3 .023-.165.05-.329.05-.5 0-1.93-1.57-3.5-3.5-3.5S23 14.57 23 16.5zM5.5 21C3.57 21 2 22.57 2 24.5c0 .171.027.335.05.5.246-1.692 1.692-3 3.45-3 1.758 0 3.204 1.308 3.45 3 .023-.165.05-.329.05-.5C9 22.57 7.43 21 5.5 21zM9 24.5c0 .171.027.335.05.5.246-1.692 1.692-3 3.45-3 1.758 0 3.204 1.308 3.45 3 .023-.165.05-.329.05-.5 0-1.93-1.57-3.5-3.5-3.5S9 22.57 9 24.5zm7 0c0 .171.027.335.05.5.246-1.692 1.692-3 3.45-3 1.758 0 3.204 1.308 3.45 3 .023-.165.05-.329.05-.5 0-1.93-1.57-3.5-3.5-3.5S16 22.57 16 24.5zm7 0c0 .171.027.335.05.5.246-1.692 1.692-3 3.45-3 1.758 0 3.204 1.308 3.45 3 .023-.165.05-.329.05-.5 0-1.93-1.57-3.5-3.5-3.5S23 22.57 23 24.5z"/></svg>
